src/Widgets/GroupWidget/thumbnail.svg

<svg xmlns="http://www.w3.org/2000/svg" fill="none" viewBox="0 0 150 100"><g clip-path="url(#a)"><path stroke="#AAA" stroke-linecap="round" stroke-width="4.64" d="M17.32 17.88c0-2.52 2.11-4.56 4.71-4.56h106.2c2.6 0 4.71 2.04 4.71 4.56m.01 64.99c0 2.52-2.11 4.56-4.71 4.56H22.03c-2.6 0-4.71-2.04-4.71-4.56" opacity=".55"/><path fill="#AAA" d="M52.34 56.63c-.91 0-1.77-.16-2.59-.48s-1.54-.8-2.17-1.44c-.63-.63-1.13-1.42-1.49-2.35s-.54-2.01-.54-3.23c0-1.59.31-2.95.92-4.06.61-1.12 1.43-1.97 2.46-2.56s2.17-.88 3.43-.88c1.85 0 3.31.43 4.37 1.29s1.77 2.08 2.13 3.65l-2.78.4c-.26-.84-.69-1.51-1.28-2.01s-1.34-.76-2.26-.76c-.91-.01-1.67.18-2.28.59s-1.06.98-1.37 1.73c-.3.75-.45 1.62-.45 2.62s.15 1.87.45 2.6.76 1.3 1.37 1.71q.915.615 2.28.63c.62.01 1.18-.09 1.68-.32s.93-.58 1.28-1.07.59-1.11.74-1.87h-2.28v-2.1h5.18c.01.09.02.24.03.46s0 .35 0 .38c0 1.38-.28 2.6-.84 3.67a6.14 6.14 0 0 1-2.37 2.5c-1.02.6-2.22.91-3.61.91zm8.82-.3v-10.8h2.4v2.64l-.26-.34c.14-.37.33-.71.56-1.02s.52-.56.86-.76c.26-.16.54-.29.85-.38s.62-.15.95-.17.65-.01.98.03v2.54c-.3-.09-.65-.12-1.04-.1-.4.03-.75.12-1.08.28-.32.15-.59.34-.81.58s-.39.53-.5.86-.17.7-.17 1.12v5.52zm12.89.3c-1.09 0-2.04-.24-2.86-.73a5.1 5.1 0 0 1-1.92-2.02c-.46-.86-.69-1.84-.69-2.96s.23-2.12.7-2.97 1.11-1.53 1.93-2c.82-.48 1.76-.72 2.83-.72s2.04.24 2.87.73q1.23.735 1.92 2.01c.46.86.69 1.84.69 2.96s-.23 2.11-.7 2.97c-.46.86-1.11 1.53-1.93 2.01s-1.78.72-2.86.72zm0-2.54c.87 0 1.53-.29 1.96-.88s.65-1.35.65-2.28-.22-1.73-.66-2.3-1.08-.86-1.95-.86c-.59 0-1.08.13-1.46.4q-.57.405-.84 1.11c-.18.47-.28 1.02-.28 1.65q0 1.455.66 2.31c.44.57 1.08.85 1.92.85m11.7 2.56c-.85 0-1.54-.14-2.07-.43s-.95-.65-1.24-1.09c-.3-.44-.51-.9-.64-1.38s-.2-.91-.23-1.3-.04-.68-.04-.86v-6.06h2.76v5.1c0 .25.01.56.04.95s.11.77.25 1.16.37.71.68.97q.48.39 1.35.39c.23 0 .48-.04.75-.11s.52-.22.75-.43.42-.52.58-.93c.15-.41.22-.95.22-1.62l1.56.74c0 .85-.17 1.65-.52 2.4s-.87 1.35-1.57 1.81-1.57.69-2.63.69m3.5-.32v-3.58h-.34v-7.22h2.74v10.8zm5.18 4.8v-15.6h2.4v7.4h.34v8.2zm5.32-4.5c-1.07 0-1.97-.25-2.69-.75s-1.26-1.18-1.62-2.04q-.54-1.29-.54-2.91c0-1.62.18-2.05.54-2.91q.54-1.29 1.59-2.04c.7-.5 1.56-.75 2.59-.75s1.93.25 2.7.74 1.36 1.17 1.79 2.03.63 1.83.63 2.93-.21 2.05-.62 2.91c-.42.86-1 1.54-1.75 2.04s-1.62.75-2.61.75zm-.44-2.42c.59 0 1.07-.15 1.44-.44s.65-.69.83-1.19.27-1.05.27-1.66-.09-1.15-.28-1.64c-.19-.5-.47-.89-.86-1.19s-.89-.44-1.5-.44c-.57 0-1.03.14-1.38.41s-.61.66-.77 1.15-.24 1.07-.24 1.72.08 1.23.24 1.72.42.88.79 1.15.85.41 1.46.41"/></g><defs><clipPath id="a"><path fill="#fff" d="M15 11h120.27v78.75H15z"/></clipPath></defs></svg>

<svg viewBox="0 0 150 100" fill="none" xmlns="http://www.w3.org/2000/svg">
<g id="group">
<g id="Ebene_1" clip-path="url(#clip0_5_260)">
<path id="Vector" opacity="0.55" d="M17.32 17.88C17.32 15.36 19.43 13.32 22.03 13.32H128.23C130.83 13.32 132.94 15.36 132.94 17.88" stroke="#AAAAAA" stroke-width="4.64" stroke-linecap="round"/>
<path id="Vector_2" opacity="0.55" d="M132.95 82.87C132.95 85.39 130.84 87.43 128.24 87.43H22.03C19.43 87.43 17.32 85.39 17.32 82.87" stroke="#AAAAAA" stroke-width="4.64" stroke-linecap="round"/>
<path id="Vector_3" d="M52.34 56.63C51.43 56.63 50.57 56.47 49.75 56.15C48.93 55.83 48.21 55.35 47.58 54.71C46.95 54.08 46.45 53.29 46.09 52.36C45.73 51.43 45.55 50.35 45.55 49.13C45.55 47.54 45.86 46.18 46.47 45.07C47.08 43.95 47.9 43.1 48.93 42.51C49.96 41.92 51.1 41.63 52.36 41.63C54.21 41.63 55.67 42.06 56.73 42.92C57.79 43.78 58.5 45 58.86 46.57L56.08 46.97C55.82 46.13 55.39 45.46 54.8 44.96C54.21 44.46 53.46 44.2 52.54 44.2C51.63 44.19 50.87 44.38 50.26 44.79C49.65 45.2 49.2 45.77 48.89 46.52C48.59 47.27 48.44 48.14 48.44 49.14C48.44 50.14 48.59 51.01 48.89 51.74C49.19 52.47 49.65 53.04 50.26 53.45C50.87 53.86 51.63 54.07 52.54 54.08C53.16 54.09 53.72 53.99 54.22 53.76C54.72 53.53 55.15 53.18 55.5 52.69C55.85 52.2 56.09 51.58 56.24 50.82H53.96V48.72H59.14C59.15 48.81 59.16 48.96 59.17 49.18C59.18 49.4 59.17 49.53 59.17 49.56C59.17 50.94 58.89 52.16 58.33 53.23C57.77 54.3 56.98 55.13 55.96 55.73C54.94 56.33 53.74 56.64 52.35 56.64L52.34 56.63Z" fill="#AAAAAA"/>
<path id="Vector_4" d="M61.16 56.33V45.53H63.56V48.17L63.3 47.83C63.44 47.46 63.63 47.12 63.86 46.81C64.09 46.5 64.38 46.25 64.72 46.05C64.98 45.89 65.26 45.76 65.57 45.67C65.88 45.58 66.19 45.52 66.52 45.5C66.85 45.48 67.17 45.49 67.5 45.53V48.07C67.2 47.98 66.85 47.95 66.46 47.97C66.06 48 65.71 48.09 65.38 48.25C65.06 48.4 64.79 48.59 64.57 48.83C64.35 49.07 64.18 49.36 64.07 49.69C63.96 50.02 63.9 50.39 63.9 50.81V56.33H61.16Z" fill="#AAAAAA"/>
<path id="Vector_5" d="M74.05 56.63C72.96 56.63 72.01 56.39 71.19 55.9C70.37 55.41 69.73 54.74 69.27 53.88C68.81 53.02 68.58 52.04 68.58 50.92C68.58 49.8 68.81 48.8 69.28 47.95C69.75 47.1 70.39 46.42 71.21 45.95C72.03 45.47 72.97 45.23 74.04 45.23C75.11 45.23 76.08 45.47 76.91 45.96C77.73 46.45 78.37 47.12 78.83 47.97C79.29 48.83 79.52 49.81 79.52 50.93C79.52 52.05 79.29 53.04 78.82 53.9C78.36 54.76 77.71 55.43 76.89 55.91C76.07 56.39 75.11 56.63 74.03 56.63H74.05ZM74.05 54.09C74.92 54.09 75.58 53.8 76.01 53.21C76.44 52.62 76.66 51.86 76.66 50.93C76.66 50 76.44 49.2 76 48.63C75.56 48.06 74.92 47.77 74.05 47.77C73.46 47.77 72.97 47.9 72.59 48.17C72.21 48.44 71.93 48.81 71.75 49.28C71.57 49.75 71.47 50.3 71.47 50.93C71.47 51.9 71.69 52.67 72.13 53.24C72.57 53.81 73.21 54.09 74.05 54.09Z" fill="#AAAAAA"/>
<path id="Vector_6" d="M85.75 56.65C84.9 56.65 84.21 56.51 83.68 56.22C83.15 55.93 82.73 55.57 82.44 55.13C82.14 54.69 81.93 54.23 81.8 53.75C81.67 53.27 81.6 52.84 81.57 52.45C81.54 52.06 81.53 51.77 81.53 51.59V45.53H84.29V50.63C84.29 50.88 84.3 51.19 84.33 51.58C84.36 51.97 84.44 52.35 84.58 52.74C84.72 53.13 84.95 53.45 85.26 53.71C85.58 53.97 86.03 54.1 86.61 54.1C86.84 54.1 87.09 54.06 87.36 53.99C87.63 53.92 87.88 53.77 88.11 53.56C88.34 53.35 88.53 53.04 88.69 52.63C88.84 52.22 88.91 51.68 88.91 51.01L90.47 51.75C90.47 52.6 90.3 53.4 89.95 54.15C89.6 54.9 89.08 55.5 88.38 55.96C87.68 56.42 86.81 56.65 85.75 56.65ZM89.25 56.33V52.75H88.91V45.53H91.65V56.33H89.25Z" fill="#AAAAAA"/>
<path id="Vector_7" d="M94.43 61.13V45.53H96.83V52.93H97.17V61.13H94.43ZM99.75 56.63C98.68 56.63 97.78 56.38 97.06 55.88C96.34 55.38 95.8 54.7 95.44 53.84C95.08 52.98 94.9 52.01 94.9 50.93C94.9 49.85 95.08 48.88 95.44 48.02C95.8 47.16 96.33 46.48 97.03 45.98C97.73 45.48 98.59 45.23 99.62 45.23C100.65 45.23 101.55 45.48 102.32 45.97C103.09 46.46 103.68 47.14 104.11 48C104.54 48.86 104.74 49.83 104.74 50.93C104.74 52.03 104.53 52.98 104.12 53.84C103.7 54.7 103.12 55.38 102.37 55.88C101.62 56.38 100.75 56.63 99.76 56.63H99.75ZM99.31 54.21C99.9 54.21 100.38 54.06 100.75 53.77C101.12 53.48 101.4 53.08 101.58 52.58C101.76 52.08 101.85 51.53 101.85 50.92C101.85 50.31 101.76 49.77 101.57 49.28C101.38 48.78 101.1 48.39 100.71 48.09C100.32 47.79 99.82 47.65 99.21 47.65C98.64 47.65 98.18 47.79 97.83 48.06C97.48 48.33 97.22 48.72 97.06 49.21C96.9 49.7 96.82 50.28 96.82 50.93C96.82 51.58 96.9 52.16 97.06 52.65C97.22 53.14 97.48 53.53 97.85 53.8C98.22 54.07 98.7 54.21 99.31 54.21Z" fill="#AAAAAA"/>
</g>
</g>
<defs>
<clipPath id="clip0_5_260">
<rect width="120.27" height="78.75" fill="white" transform="translate(15 11)"/>
</clipPath>
</defs>
</svg>
